modules/hawcons-stroke/icons/search-plus.svg

<?xml version="1.0" encoding="UTF-8" standalone="no"?>
<svg width="32px" height="32px" viewBox="0 0 32 32" version="1.1" xmlns="http://www.w3.org/2000/svg" xmlns:xlink="http://www.w3.org/1999/xlink" xmlns:sketch="http://www.bohemiancoding.com/sketch/ns">
    <!-- Generator: Sketch 3.0.3 (7891) - http://www.bohemiancoding.com/sketch -->
    <title>icon 112 search plus</title>
    <desc>Created with Sketch.</desc>
    <defs></defs>
    <g id="Page-1" stroke="none" stroke-width="1" fill="none" fill-rule="evenodd" sketch:type="MSPage">
        <g id="icon-112-search-plus" sketch:type="MSArtboardGroup" fill="#929292">
            <path d="M13,13 L13,9 L14,9 L14,13 L18,13 L18,14 L14,14 L14,18 L13,18 L13,14 L9,14 L9,13 L13,13 L13,13 Z M19.1453485,19.8546515 C17.644113,21.1892864 15.6667327,22 13.5,22 C8.80557939,22 5,18.1944206 5,13.5 C5,8.80557939 8.80557939,5 13.5,5 C18.1944206,5 22,8.80557939 22,13.5 C22,15.6667327 21.1892864,17.644113 19.8546515,19.1453485 L20,19 L26.5077736,25.5077736 C26.782828,25.782828 26.7761424,26.2238576 26.5,26.5 C26.2219324,26.7780676 25.7796227,26.7796227 25.5077736,26.5077736 L19,20 L19.145348,19.854652 L19.1453485,19.8546515 L19.1453485,19.8546515 Z M13.5,21 C17.6421358,21 21,17.6421358 21,13.5 C21,9.35786417 17.6421358,6 13.5,6 C9.35786417,6 6,9.35786417 6,13.5 C6,17.6421358 9.35786417,21 13.5,21 L13.5,21 Z" id="search-plus" sketch:type="MSShapeGroup"></path>
        </g>
    </g>
</svg>

<svg width="32" height="32" viewBox="0 0 32 32" xmlns="http://www.w3.org/2000/svg"><path d="M13 13V9h1v4h4v1h-4v4h-1v-4H9v-1h4zm6.145 6.855a8.5 8.5 0 1 1 .71-.71L20 19l6.508 6.508a.699.699 0 0 1-.008.992.7.7 0 0 1-.992.008L19 20l.145-.145zM13.5 21a7.5 7.5 0 1 0 0-15 7.5 7.5 0 0 0 0 15z" fill="#929292" fill-rule="evenodd"/></svg>
